outputs/icons/device/hdmi_round.svg

<svg xmlns="http://www.w3.org/2000/svg" width="1200" height="1200" fill="none"><g fill="#000" clip-path="url(#a)"><path d="M125.84 579.17h132.279V500h77.064v193.855h-77.064v-69.48H125.84v69.48H50V500h75.84zM367.238 500H601.74a51 51 0 0 1 36.015 14.945A51 51 0 0 1 652.7 550.96v91.935a51 51 0 0 1-14.945 36.015 51.05 51.05 0 0 1-36.015 14.945H367.238l-.3-114.665h73.39l.323 66.43H579.29v-97.365H366.938zM992.455 500H683.34v193.96h73.495v-145.6h69.91v145.6h73.05v-145.6h69.91v145.6h73.41V551.005a50.8 50.8 0 0 0-3.79-19.475 50.77 50.77 0 0 0-27.425-27.605A50.7 50.7 0 0 0 992.455 500M1074.16 500H1150v79.17l-.3 26.105.3 19.1v69.48h-75.84z"/></g><defs><clipPath id="a"><path fill="#fff" d="M0 0h1200v1200H0z"/></clipPath></defs></svg>

<svg width="1200" height="1200" viewBox="0 0 1200 1200" fill="none" xmlns="http://www.w3.org/2000/svg"><g clip-path="url(#clip0_833_1828)"><path fill-rule="evenodd" d="M125.84 579.17H258.119V500H335.183V693.855H258.119V624.375H125.84V693.855H50V500H125.84V579.17ZM367.238 500H601.74C615.25 500.015 628.205 505.39 637.755 514.945C647.31 524.5 652.685 537.45 652.7 550.96V642.895C652.685 656.405 647.31 669.355 637.755 678.91C628.205 688.46 615.25 693.835 601.74 693.855H367.238L366.938 579.19H440.328L440.65 645.62H579.29V548.255H366.938L367.238 500ZM992.455 500H683.34V693.96H756.835V548.36H826.745V693.96H899.795V548.36H969.705V693.96H1043.115V551.005C1043.145 544.325 1041.855 537.71 1039.325 531.53C1036.79 525.355 1033.065 519.735 1028.36 514.995C1023.655 510.26 1018.06 506.495 1011.9 503.925C1005.74 501.35 999.13 500.015 992.455 500ZM1074.16 500H1150V579.17L1149.7 605.275L1150 624.375V693.855H1074.16V500Z" fill="#1D1E23"/></g><defs><clipPath id="clip0_833_1828"><path width="24" fill="white" d="M0 0H1200V1200H0V0z"/></clipPath></defs></svg>
